!!!OTL: 547. Bei Mondenschein.
!!!ODT: 1865
!!!ARE: Europa, Mitteleuropa, Deutschland; Oesterreich - Schlesien
!!!SCT: E0547
!!!TXL: @@DE
!!!YEM: Copyright 1995, estate of Helmut Schaffrath.
**kern	**text
*ICvox	*
*M3/4	*
*k[b-e-a-]	*
*E-:	*
=1	=1
!LO:TX:a:t=Etwas langsam.	!
!LO:TX:a:t=Aus Oeſterreich-Schleſten 1865. (Erk, Liederſchatʒ III, Nr. 69.)	!
{4e-	Ge-
4g	-ſtern
4a-	bei
=2	=2
4.b-	Mon-
8cc	-den-
4b-}	-ſchein
=3	=3
{4a-	ging
4g	ich
4f	ſpa-
=4	=4
2g	-ʒie-
4e-}	-ren,
=5	=5
{4e-	Ge-
4g	-ſtern
4a-	bei
=6	=6
4.b-	Mon-
8cc	-den-
4b-}	-ſchein
=7	=7
{4a-	ging
4g	ich
4f	ſpa-
=8	=8
2g	-ʒie-
4e-}	-ren,
=9	=9
{4f	in
4f	dem
4g	Haus-
=10	=10
4.a-	-gär-
8b-/	-te-
4a-}	-lein,
=11	=11
{4g	in
4g	dem
4a-	Haus-
=12	=12
4.b-	-gär-
8cc	-te-
4b-}	-lein,
=13	=13
{4a-	bei
4g	Mon-
4f	-den-
=14	=14
(2f	-ſchein.
4e-)}	.
==	==
!!!AGN: Liebes - Lied
!!!ONB: ESAC (Essen Associative Code) Database: ERK1
!!!AMT: simple triple
!!!AIN: vox
!!!EED: Helmut Schaffrath
!!!EEV: 1.0
!!!GTL: Liebeslieder [Neuere (aus dem 18. bis 19. Jahrh.) - Liebeslust]
!!!URL-scan: https://rosdok.uni-rostock.de/mcrviewer/recordIdentifier/rosdok_ppn745177662/iview2/phys_0375.iview2?x=-128.77276441889308&y=1758.0836417104583&scale=0.5870222003877485&rotation=0&layout=singlePageLayout
!!!ENC: Anna Maria Matuszewska
!!!EEV: 2024/10/12
*-	*-
